packages/Snapp/src/SignPhotoIcon/index.svg

<?xml version="1.0" encoding="UTF-8"?>
<svg width="24px" height="24px" viewBox="0 0 24 24" version="1.1" xmlns="http://www.w3.org/2000/svg" xmlns:xlink="http://www.w3.org/1999/xlink">
    <title>Icons/24/Sign Photo</title>
    <g id="Icons/24/Sign-Photo" stroke="none" stroke-width="1" fill="none" fill-rule="evenodd">
        <rect id="Container" fill-opacity="0" fill="#D8D8D8" fill-rule="nonzero" x="0" y="0" width="24" height="24"></rect>
        <polygon id="Path" points="0 0 24 0 24 24 0 24"></polygon>
        <path d="M20,15 C20.5522847,15 21,15.4477153 21,16 L21,18 C21,19.5976809 19.75108,20.9036609 18.1762728,20.9949073 L18,21 L16,21 C15.4477153,21 15,20.5522847 15,20 C15,19.4477153 15.4477153,19 16,19 L18,19 C18.5128358,19 18.9355072,18.6139598 18.9932723,18.1166211 L19,18 L19,16 C19,15.4477153 19.4477153,15 20,15 Z M4,15 C4.55228475,15 5,15.4477153 5,16 L5,18 C5,18.5128358 5.38604019,18.9355072 5.88337887,18.9932723 L6,19 L8,19 C8.55228475,19 9,19.4477153 9,20 C9,20.5522847 8.55228475,21 8,21 L6,21 C4.40231912,21 3.09633912,19.75108 3.00509269,18.1762728 L3,18 L3,16 C3,15.4477153 3.44771525,15 4,15 Z M15.3344458,13.0354637 C15.3566487,13.7843435 15.4352994,14.4026499 15.5983226,14.9849887 L15.6770305,15.250463 C15.7732469,15.556681 15.8887047,15.8616079 16.0640855,16.2803788 L16.3440552,16.9324905 C16.51102,17.315615 16.2904999,17.6540262 15.9060758,17.7512863 C15.5438231,17.842937 15.1577797,17.6953643 15.0042708,17.3431348 L14.7428428,16.7348828 C14.6932048,16.6168871 14.6485979,16.5086992 14.6078084,16.4070401 L14.4632895,16.0291601 C13.946079,16.8821049 13.19703,16.900159 12.3305571,16.4597044 L12.1790036,16.3736147 C12.1291946,16.3422994 12.0801473,16.6855997 12.0320197,16.6493479 L11.9002895,16.5401601 L11.8413102,16.5911191 C11.4512277,16.8987771 10.965771,16.9906577 10.2075339,16.9931201 L7.68681357,16.9860848 C7.2750475,16.9850874 7.0002124,16.6851836 6.99999734,16.3132852 C6.99978777,15.9408158 7.27513988,15.6416183 7.68792216,15.6426161 L10.3250266,15.6490312 C10.8851509,15.6494136 11.0906635,15.5372881 11.1783324,15.1347801 C11.3252451,14.4603864 12.3274759,14.498464 12.5362189,15.1130199 C12.6694555,15.5051216 12.8070592,15.6270457 12.9318564,15.5950318 C13.0779311,15.5575596 13.2677205,15.342842 13.415841,15.0263381 C13.5745049,14.6873314 13.6763482,14.3346939 13.7775749,13.8160803 L13.9469992,12.878248 C14.095966,12.1029445 15.3121788,12.2834489 15.3344458,13.0354637 Z M13.499816,7.33333333 L15.1878647,9.02138195 L10.2092466,14 L8.52119799,14 L8.52119799,12.3119514 L13.499816,7.33333333 Z M8,3 C8.55228475,3 9,3.44771525 9,4 C9,4.55228475 8.55228475,5 8,5 L6,5 C5.48716416,5 5.06449284,5.38604019 5.00672773,5.88337887 L5,6 L5,8 C5,8.55228475 4.55228475,9 4,9 C3.44771525,9 3,8.55228475 3,8 L3,6 C3,4.40231912 4.24891996,3.09633912 5.82372721,3.00509269 L6,3 L8,3 Z M18,3 C19.5976809,3 20.9036609,4.24891996 20.9949073,5.82372721 L21,6 L21,8 C21,8.55228475 20.5522847,9 20,9 C19.4477153,9 19,8.55228475 19,8 L19,6 C19,5.48716416 18.6139598,5.06449284 18.1166211,5.00672773 L18,5 L16,5 C15.4477153,5 15,4.55228475 15,4 C15,3.44771525 15.4477153,3 16,3 L18,3 Z M15.2547016,6.07471264 L15.3257957,6.13282248 L16.3883755,7.1954023 C16.5433351,7.35036186 16.562705,7.58876118 16.4464853,7.76458067 L16.3883755,7.83567476 L15.5573836,8.66666667 L13.8545313,6.96381439 L14.6855232,6.13282248 C14.8404828,5.97786292 15.0788821,5.95849298 15.2547016,6.07471264 Z" id="Combined-Shape" fill="#333333"></path>
    </g>
</svg>

<svg viewBox="0 0 24 24" xmlns="http://www.w3.org/2000/svg" fill="currentColor" focusable="false">
  <path d="M0 0h24v24H0z"/>
  <path d="M20 15a1 1 0 011 1v2a3 3 0 01-2.824 2.995L18 21h-2a1 1 0 010-2h2a1 1 0 00.993-.883L19 18v-2a1 1 0 011-1zM4 15a1 1 0 011 1v2a1 1 0 00.883.993L6 19h2a1 1 0 010 2H6a3 3 0 01-2.995-2.824L3 18v-2a1 1 0 011-1zm11.334-1.965c.023.75.101 1.368.264 1.95l.079.265c.096.307.212.612.387 1.03l.28.652c.167.384-.054.722-.438.82-.362.09-.748-.057-.902-.409l-.261-.608c-.05-.118-.094-.226-.135-.328l-.145-.378c-.517.853-1.266.871-2.132.43l-.152-.085c-.05-.032-.099.312-.147.275l-.132-.109-.059.051c-.39.308-.875.4-1.633.402l-2.521-.007A.66.66 0 017 16.313c0-.372.275-.671.688-.67l2.637.006c.56 0 .766-.112.853-.514.147-.675 1.15-.637 1.358-.022.133.392.271.514.396.482.146-.037.336-.252.484-.569.159-.339.26-.691.362-1.21l.169-.938c.149-.775 1.365-.595 1.387.157zM13.5 7.333l1.688 1.688L10.209 14H8.521v-1.688L13.5 7.333zM8 3a1 1 0 110 2H6a1 1 0 00-.993.883L5 6v2a1 1 0 11-2 0V6a3 3 0 012.824-2.995L6 3h2zm10 0a3 3 0 012.995 2.824L21 6v2a1 1 0 01-2 0V6a1 1 0 00-.883-.993L18 5h-2a1 1 0 010-2h2zm-2.745 3.075l.07.058 1.063 1.062a.452.452 0 01.058.57l-.058.07-.83.832-1.703-1.703.83-.831a.452.452 0 01.57-.058z"/>
</svg>
